X: 33385
T: Queen's Triumph, The
R: reel
M: 4/4
K: Gmajor
B|:dedB e2d2|dedB cAAc|dedB e2d2|ecAd BGG [1 B:|2 f||
g2 gf e2 df|gedB cAAf|g2 gd e2 df|ecAd BGGf|
g2 gf e2 df|gedB cAAf|g2 ge a2 ag|fdef g2g||

